X:84
T:Mundesse
M:C|
L:1/8
K:G
G2 GG G2 A2 | B3A G2 d2 | c3B ABcd | B3A G2 G2 | A3G A2 B2 | c3d c2 B2 | A2 G2 G2 F2 | G8 :|
|: G3A BABc | d3e d2 ef | g2 f2 edef | [1 d8 :| [2 d6 ||
|: f2 | g2 f2 g2 e2 | d6 ef | g2 f2 g2 e2 | d6 e2 | f2 g2 f2 g2 | d6 c2 | B2 AA GFGA | G6 :|
|: G2 | B3c d2 B2 | e3d c2 B2 | A2 G2 G2 F2 | [1 G6 :| [2 G8||
%
%
